docs-site/src/assets/images/logos/pega-logo-acd.svg

<svg height="67" viewBox="0 0 534 67" width="534" xmlns="http://www.w3.org/2000/svg" xmlns:xlink="http://www.w3.org/1999/xlink"><mask id="a" fill="#fff"><path d="m0 .949h152.533162v67.051h-152.533162z" fill="#fff" fill-rule="evenodd"/></mask><g fill="none" fill-rule="evenodd" transform="translate(0 -1)"><path d="m136.1455 17.9363-.187-.089c-.019-.011-2.213-.999-3.928.806l-.219.231 3.513 1.721zm16.082 19.292s-1.532 2.74-2.218 3.753c-.689 1.021-2.844 1.655-4.707.765-.852-.405-8.823-5.055-11.873-4.788-15.439 1.346-19.645-5.015-20.141-5.593-.497-.578-1.426-.309-.763.827 3.387 5.809 13.411 8.501 13.411 8.501 2.62 6.317 2.934 10.742 2.934 10.742-2.596-2.023-5.398-3.728-8.371-5.144-7.946-5.332-20.385-11.935-37.506-16.074.983-13.583 7.836-33.217 39.884-28.573 0 0 6.431 1.054 10.717 4.018 0 0-1.03 1.08-2.384 2.432-1.354 1.349.144 2.215.144 2.215l6.769 5.321c.079 2.815.195 3.603 2.313 6.151 2.118 2.544 10.353 11.169 11.43 12.322 1.248 1.334.361 3.125.361 3.125zm-73.809-26.476c-1.694 6.983-1.565 13.135-.694 18.307-1.608-.321-3.242-.627-4.925-.901-35.074-5.708-45.653 11.578-41.558 25.595-11.596 4.359-22.493 9.348-31.242 14.247 13.766-33.017 43.682-62.075 68.932-65.895 8.244-1.086 10.562 4.262 9.487 8.647z" fill="#1f2555" mask="url(#a)" transform="translate(0 .051)"/><path d="m83.2778 40.979c13.665-1.08 26.562.291 37.221 5.363-7.946-5.332-20.385-11.934-37.507-16.073-.342 4.731.024 8.727.286 10.71m-1.973.172c-15.31 1.462-33.414 6.401-50.064 12.654-4.094-14.016 6.486-31.305 41.559-25.596 1.683.274 3.316.582 4.924.901.832 4.945 2.338 9.007 3.581 12.041" fill="#00a6a7"/><g fill="#1f2555"><path d="m286.4155 35.9283 4.749-11.593 4.75 11.593zm1.225-21.039-15.319 36h8.018l3.265-8.015h15.12l3.265 8.015h8.223l-15.319-36zm-99.208 12.704c0 3.083-2.311 5.449-6.272 5.449h-6.274v-11.004h6.119c3.961 0 6.427 1.903 6.427 5.452zm-5.758-12.704h-14.709v36h7.921v-10.8h6.015c8.075 0 14.557-4.322 14.557-12.653v-.103c0-7.354-5.193-12.444-13.784-12.444zm56.875 4.02c-3.775 3.687-5.689 8.355-5.689 13.876 0 5.525 1.878 10.158 5.588 13.779 3.703 3.617 8.359 5.448 13.84 5.448 6.489 0 11.562-1.964 15.084-5.839l.182-.205v-16.523h-15.657v6.688h8.166v6.749c-2.114 1.259-4.753 1.899-7.849 1.899-3.208 0-5.975-1.1-8.226-3.273-2.245-2.161-3.384-5.092-3.384-8.693 0-3.604 1.173-6.548 3.485-8.746 2.32-2.208 5.234-3.328 8.662-3.328 1.803 0 3.4.222 4.745.66 1.262.41 2.54 1.155 3.806 2.2l4.38-5.529c-2.311-2.036-6.47-4.716-13.394-4.716-5.341 0-9.964 1.869-13.739 5.553zm-29.428 17.584h15.506v-7.047h-15.506v-7.515h19.287v-7.042h-27.157v36h27.413v-7.045h-19.543z"/><path d="m353.34375 51-4.443359-11.3525391h-14.306641l-4.394531 11.3525391h-4.199219l14.111328-35.8398438h3.491211l14.038086 35.8398438zm-5.737305-15.0878906-4.15039-11.0595703c-.537112-1.3997466-1.090492-3.1168518-1.660157-5.1513672-.358074 1.5625078-.870764 3.279613-1.538086 5.1513672l-4.199218 11.0595703zm24.024414 15.5761718c-3.873717 0-6.872548-1.1922081-8.996582-3.5766601s-3.186035-5.7576279-3.186035-10.1196289c0-4.4759339 1.078277-7.9345581 3.234863-10.3759766 2.156587-2.4414184 5.228659-3.6621094 9.216309-3.6621094 1.285814 0 2.571608.138345 3.857422.4150391s2.294918.6022117 3.027344.9765625l-1.245118 3.4423828c-.895186-.3580747-1.871739-.6551095-2.929687-.8911133-1.057948-.2360037-1.993811-.3540039-2.807617-.3540039-5.436225 0-8.154297 3.4667622-8.154297 10.4003907 0 3.2877768.663242 5.810538 1.989746 7.5683593s3.291816 2.6367188 5.895996 2.6367188c2.229829 0 4.51659-.4801384 6.860352-1.4404297v3.5888672c-1.790374.927739-4.044583 1.3916015-6.762696 1.3916015zm28.56543-.4882812-.805664-3.8085938h-.195313c-1.334642 1.6764407-2.665195 2.8116833-3.991699 3.4057618s-2.982574.8911132-4.968261.8911132c-2.653008 0-4.732252-.6835869-6.237793-2.0507812-1.505542-1.3671943-2.258301-3.3121619-2.258301-5.8349609 0-5.4036729 4.321246-8.2356758 12.963867-8.4960938l4.541016-.1464844v-1.6601562c0-2.0996199-.451656-3.6498974-1.354981-4.6508789-.903325-1.0009816-2.347809-1.5014649-4.333496-1.5014649-2.229829 0-4.75259.683587-7.568359 2.0507813l-1.245117-3.100586c1.318365-.7161494 2.76285-1.2776672 4.333496-1.6845703 1.570645-.406903 3.145337-.6103515 4.724121-.6103515 3.19012 0 5.554191.7080007 7.092285 2.1240234 1.538093 1.4160227 2.307129 3.6865078 2.307129 6.8115234v18.2617188zm-9.155273-2.8564453c2.522799 0 4.504387-.6917249 5.944824-2.0751953 1.440437-1.3834705 2.160644-3.3203001 2.160644-5.8105469v-2.4169922l-4.052734.1708985c-3.222672.1139328-5.546054.6144161-6.970215 1.5014648s-2.13623 2.2664294-2.13623 4.1381836c0 1.4648511.443517 2.5797488 1.330566 3.3447266.887049.7649777 2.128085 1.1474609 3.723145 1.1474609zm37.720703-.7324219h-.219727c-1.871754 2.7181126-4.671205 4.0771484-8.398437 4.0771484-3.499367 0-6.221508-1.196277-8.166504-3.5888671-1.944997-2.3925901-2.917481-5.7942488-2.917481-10.2050782 0-4.4108293.976553-7.8369018 2.929688-10.2783203 1.953135-2.4414184 4.671206-3.6621094 8.154297-3.6621094 3.629575 0 6.41275 1.3183462 8.349609 3.9550782h.317383l-.170899-1.928711-.097656-1.8798828v-10.8886718h4.052735v37.9882812h-3.295899zm-8.105469.6835938c2.766941 0 4.772943-.7527594 6.018066-2.2583008 1.245124-1.5055414 1.867676-3.9347163 1.867676-7.2875977v-.8544922c0-3.7923366-.63069-6.4982015-1.89209-8.1176757-1.261399-1.6194743-3.275539-2.4291993-6.04248-2.4291993-2.376314 0-4.195144.9236562-5.456543 2.7709961-1.2614 1.84734-1.89209 4.4555496-1.89209 7.8247071 0 3.4179858.626621 5.9977126 1.879883 7.7392578 1.253261 1.7415451 3.092436 2.6123047 5.517578 2.6123047zm30.835938 3.3935546c-3.955098 0-7.075998-1.204415-9.362793-3.6132812-2.286796-2.4088662-3.430176-5.7535593-3.430176-10.0341797 0-4.3131726 1.062001-7.7392451 3.186035-10.2783203s4.976382-3.8085938 8.557129-3.8085938c3.352881 0 6.005849 1.1026908 7.958984 3.3081055s2.929688 5.114728 2.929688 8.7280274v2.5634765h-18.432617c.08138 3.1412918.874829 5.525708 2.380371 7.1533203 1.505541 1.6276123 3.625474 2.4414063 6.359863 2.4414063 2.880874 0 5.729152-.6022075 8.544922-1.8066406v3.6132812c-1.432299.6184927-2.787266 1.0620104-4.064942 1.3305664-1.277675.268556-2.819815.402832-4.626464.402832zm-1.098633-24.3408203c-2.148449 0-3.861485.6998628-5.13916 2.0996094-1.277676 1.3997466-2.030436 3.3365762-2.258301 5.8105469h13.989258c0-2.5553513-.569656-4.5125258-1.708985-5.871582-1.139328-1.3590563-2.766916-2.0385743-4.882812-2.0385743zm50.953125 23.8525391v-17.4072266c0-2.1321721-.455725-3.7312772-1.367188-4.7973632-.911463-1.0660861-2.327464-1.5991211-4.248047-1.5991211-2.522799 0-4.386387.7242766-5.59082 2.1728515-1.204433 1.448575-1.806641 3.6783704-1.806641 6.6894532v14.9414062h-4.052734v-17.4072266c0-2.1321721-.455725-3.7312772-1.367188-4.7973632-.911462-1.0660861-2.335602-1.5991211-4.27246-1.5991211-2.539076 0-4.398595.7608973-5.578614 2.2827148s-1.770019 4.016096-1.770019 7.4829102v14.0380859h-4.052735v-26.7578125h3.295899l.659179 3.6621094h.195313c.764978-1.3020899 1.843255-2.3193323 3.234863-3.0517578 1.391609-.7324256 2.950024-1.0986329 4.675293-1.0986329 4.182964 0 6.917312 1.5136568 8.203125 4.5410157h.195313c.79753-1.3997466 1.953117-2.5065064 3.466797-3.3203125 1.513679-.8138062 3.238922-1.2207032 5.175781-1.2207032 3.027359 0 5.293775.7771733 6.799316 2.331543 1.505542 1.5543698 2.258301 4.0405103 2.258301 7.4584961v17.4560547zm7.154297-26.7578125h4.345703l5.859375 15.2587891c1.285813 3.4830903 2.083331 5.9977136 2.392578 7.5439453h.195312c.21159-.8300823.655108-2.2501527 1.330567-4.2602539s2.884909-8.1908662 6.628418-18.5424805h4.345703l-11.499024 30.46875c-1.139328 3.0110828-2.469881 5.1472919-3.991699 6.4086914-1.521817 1.2613995-3.389474 1.8920899-5.603027 1.8920899-1.236986 0-2.457676-.138345-3.66211-.4150391v-3.2470703c.895187.1953135 1.896154.2929687 3.00293.2929687 2.783217 0 4.768874-1.5624843 5.957031-4.6875l1.489258-3.8085937z"/></g></g></svg>

<?xml version="1.0" encoding="UTF-8"?>
<svg width="534px" height="67px" viewBox="0 0 534 67" version="1.1" xmlns="http://www.w3.org/2000/svg" xmlns:xlink="http://www.w3.org/1999/xlink">
    <!-- Generator: sketchtool 49.3 (51167) - http://www.bohemiancoding.com/sketch -->
    <title>FEF130F9-0EE9-4F93-963F-12785D10D740</title>
    <desc>Created with sketchtool.</desc>
    <defs>
        <polygon id="path-1" points="0 0.949 152.533162 0.949 152.533162 68 0 68"></polygon>
    </defs>
    <g id="Logos" stroke="none" stroke-width="1" fill="none" fill-rule="evenodd">
        <g transform="translate(-128.000000, -274.000000)" id="Pega-Academy">
            <g transform="translate(128.000000, 274.000000)">
                <g id="Page-1" transform="translate(0.000000, -1.000000)">
                    <g id="Group-3" transform="translate(0.000000, 0.051000)">
                        <mask id="mask-2" fill="white">
                            <use xlink:href="#path-1"></use>
                        </mask>
                        <g id="Clip-2"></g>
                        <path d="M136.1455,17.9363 L135.9585,17.8473 C135.9395,17.8363 133.7455,16.8483 132.0305,18.6533 L131.8115,18.8843 L135.3245,20.6053 L136.1455,17.9363 Z M152.2275,37.2283 C152.2275,37.2283 150.6955,39.9683 150.0095,40.9813 C149.3205,42.0023 147.1655,42.6363 145.3025,41.7463 C144.4505,41.3413 136.4795,36.6913 133.4295,36.9583 C117.9905,38.3043 113.7845,31.9433 113.2885,31.3653 C112.7915,30.7873 111.8625,31.0563 112.5255,32.1923 C115.9125,38.0013 125.9365,40.6933 125.9365,40.6933 C128.5565,47.0103 128.8705,51.4353 128.8705,51.4353 C126.2745,49.4123 123.4725,47.7073 120.4995,46.2913 C112.5535,40.9593 100.1145,34.3563 82.9935,30.2173 C83.9765,16.6343 90.8295,-2.9997 122.8775,1.6443 C122.8775,1.6443 129.3085,2.6983 133.5945,5.6623 C133.5945,5.6623 132.5645,6.7423 131.2105,8.0943 C129.8565,9.4433 131.3545,10.3093 131.3545,10.3093 L138.1235,15.6303 C138.2025,18.4453 138.3185,19.2333 140.4365,21.7813 C142.5545,24.3253 150.7895,32.9503 151.8665,34.1033 C153.1145,35.4373 152.2275,37.2283 152.2275,37.2283 Z M78.4185,10.7523 C76.7245,17.7353 76.8535,23.8873 77.7245,29.0593 C76.1165,28.7383 74.4825,28.4323 72.7995,28.1583 C37.7255,22.4503 27.1465,39.7363 31.2415,53.7533 C19.6455,58.1123 8.7485,63.1013 -0.0005,68.0003 C13.7655,34.9833 43.6815,5.9253 68.9315,2.1053 C77.1755,1.0193 79.4935,6.3673 78.4185,10.7523 Z" id="Fill-1" fill="#1F2555" mask="url(#mask-2)"></path>
                    </g>
                    <path d="M83.2778,40.979 C96.9428,39.899 109.8398,41.27 120.4988,46.342 C112.5528,41.01 100.1138,34.408 82.9918,30.269 C82.6498,35 83.0158,38.996 83.2778,40.979 M81.3048,41.151 C65.9948,42.613 47.8908,47.552 31.2408,53.805 C27.1468,39.789 37.7268,22.5 72.7998,28.209 C74.4828,28.483 76.1158,28.791 77.7238,29.11 C78.5558,34.055 80.0618,38.117 81.3048,41.151" id="Fill-4" fill="#00A6A7"></path>
                    <path d="M286.4155,35.9283 L291.1645,24.3353 L295.9145,35.9283 L286.4155,35.9283 Z M287.6405,14.8893 L272.3215,50.8893 L280.3395,50.8893 L283.6045,42.8743 L298.7245,42.8743 L301.9895,50.8893 L310.2125,50.8893 L294.8935,14.8893 L287.6405,14.8893 Z M188.4325,27.5933 C188.4325,30.6763 186.1215,33.0423 182.1605,33.0423 L175.8865,33.0423 L175.8865,22.0383 L182.0055,22.0383 C185.9665,22.0383 188.4325,23.9413 188.4325,27.4903 L188.4325,27.5933 Z M182.6745,14.8893 L167.9655,14.8893 L167.9655,50.8893 L175.8865,50.8893 L175.8865,40.0893 L181.9015,40.0893 C189.9765,40.0893 196.4585,35.7673 196.4585,27.4363 L196.4585,27.3333 C196.4585,19.9793 191.2655,14.8893 182.6745,14.8893 Z M239.5495,18.9093 C235.7745,22.5963 233.8605,27.2643 233.8605,32.7853 C233.8605,38.3103 235.7385,42.9433 239.4485,46.5643 C243.1515,50.1813 247.8075,52.0123 253.2885,52.0123 C259.7775,52.0123 264.8505,50.0483 268.3725,46.1733 L268.5545,45.9683 L268.5545,29.4453 L252.8975,29.4453 L252.8975,36.1333 L261.0635,36.1333 L261.0635,42.8823 C258.9495,44.1413 256.3105,44.7813 253.2145,44.7813 C250.0065,44.7813 247.2395,43.6813 244.9885,41.5083 C242.7435,39.3473 241.6045,36.4163 241.6045,32.8153 C241.6045,29.2113 242.7775,26.2673 245.0895,24.0693 C247.4095,21.8613 250.3235,20.7413 253.7515,20.7413 C255.5545,20.7413 257.1515,20.9633 258.4965,21.4013 C259.7585,21.8113 261.0365,22.5563 262.3025,23.6013 L266.6825,18.0723 C264.3715,16.0363 260.2125,13.3563 253.2885,13.3563 C247.9475,13.3563 243.3245,15.2253 239.5495,18.9093 Z M210.1215,36.4933 L225.6275,36.4933 L225.6275,29.4463 L210.1215,29.4463 L210.1215,21.9313 L229.4085,21.9313 L229.4085,14.8893 L202.2515,14.8893 L202.2515,50.8893 L229.6645,50.8893 L229.6645,43.8443 L210.1215,43.8443 L210.1215,36.4933 Z" id="Fill-6" fill="#1F2555"></path>
                    <path d="M353.34375,51 L348.900391,39.6474609 L334.59375,39.6474609 L330.199219,51 L326,51 L340.111328,15.1601562 L343.602539,15.1601562 L357.640625,51 L353.34375,51 Z M347.606445,35.9121094 L343.456055,24.8525391 C342.918943,23.4527925 342.365563,21.7356873 341.795898,19.7011719 C341.437824,21.2636797 340.925134,22.9807849 340.257812,24.8525391 L336.058594,35.9121094 L347.606445,35.9121094 Z M371.630859,51.4882812 C367.757142,51.4882812 364.758311,50.2960731 362.634277,47.9116211 C360.510243,45.5271691 359.448242,42.1539932 359.448242,37.7919922 C359.448242,33.3160583 360.526519,29.8574341 362.683105,27.4160156 C364.839692,24.9745972 367.911764,23.7539062 371.899414,23.7539062 C373.185228,23.7539062 374.471022,23.8922512 375.756836,24.1689453 C377.04265,24.4456394 378.051754,24.771157 378.78418,25.1455078 L377.539062,28.5878906 C376.643876,28.2298159 375.667323,27.9327811 374.609375,27.6967773 C373.551427,27.4607736 372.615564,27.3427734 371.801758,27.3427734 C366.365533,27.3427734 363.647461,30.8095356 363.647461,37.7431641 C363.647461,41.0309409 364.310703,43.5537021 365.637207,45.3115234 C366.963711,47.0693447 368.929023,47.9482422 371.533203,47.9482422 C373.763032,47.9482422 376.049793,47.4681038 378.393555,46.5078125 L378.393555,50.0966797 C376.603181,51.0244187 374.348972,51.4882812 371.630859,51.4882812 Z M400.196289,51 L399.390625,47.1914062 L399.195312,47.1914062 C397.86067,48.8678469 396.530117,50.0030895 395.203613,50.597168 C393.877109,51.1912465 392.221039,51.4882812 390.235352,51.4882812 C387.582344,51.4882812 385.5031,50.8046943 383.997559,49.4375 C382.492017,48.0703057 381.739258,46.1253381 381.739258,43.6025391 C381.739258,38.1988662 386.060504,35.3668633 394.703125,35.1064453 L399.244141,34.9599609 L399.244141,33.2998047 C399.244141,31.2001848 398.792485,29.6499073 397.88916,28.6489258 C396.985835,27.6479442 395.541351,27.1474609 393.555664,27.1474609 C391.325835,27.1474609 388.803074,27.8310479 385.987305,29.1982422 L384.742188,26.0976562 C386.060553,25.3815068 387.505038,24.819989 389.075684,24.4130859 C390.646329,24.0061829 392.221021,23.8027344 393.799805,23.8027344 C396.989925,23.8027344 399.353996,24.5107351 400.89209,25.9267578 C402.430183,27.3427805 403.199219,29.6132656 403.199219,32.7382812 L403.199219,51 L400.196289,51 Z M391.041016,48.1435547 C393.563815,48.1435547 395.545403,47.4518298 396.98584,46.0683594 C398.426277,44.6848889 399.146484,42.7480593 399.146484,40.2578125 L399.146484,37.8408203 L395.09375,38.0117188 C391.871078,38.1256516 389.547696,38.6261349 388.123535,39.5131836 C386.699374,40.4002323 385.987305,41.779613 385.987305,43.6513672 C385.987305,45.1162183 386.430822,46.231116 387.317871,46.9960938 C388.20492,47.7610715 389.445956,48.1435547 391.041016,48.1435547 Z M428.761719,47.4111328 L428.541992,47.4111328 C426.670238,50.1292454 423.870787,51.4882812 420.143555,51.4882812 C416.644188,51.4882812 413.922047,50.2920042 411.977051,47.8994141 C410.032054,45.506824 409.05957,42.1051653 409.05957,37.6943359 C409.05957,33.2835066 410.036123,29.8574341 411.989258,27.4160156 C413.942393,24.9745972 416.660464,23.7539062 420.143555,23.7539062 C423.77313,23.7539062 426.556305,25.0722524 428.493164,27.7089844 L428.810547,27.7089844 L428.639648,25.7802734 L428.541992,23.9003906 L428.541992,13.0117188 L432.594727,13.0117188 L432.594727,51 L429.298828,51 L428.761719,47.4111328 Z M420.65625,48.0947266 C423.423191,48.0947266 425.429193,47.3419672 426.674316,45.8364258 C427.91944,44.3308844 428.541992,41.9017095 428.541992,38.5488281 L428.541992,37.6943359 C428.541992,33.9019993 427.911302,31.1961344 426.649902,29.5766602 C425.388503,27.9571859 423.374363,27.1474609 420.607422,27.1474609 C418.231108,27.1474609 416.412278,28.0711171 415.150879,29.918457 C413.889479,31.765797 413.258789,34.3740066 413.258789,37.7431641 C413.258789,41.1611499 413.88541,43.7408767 415.138672,45.4824219 C416.391933,47.223967 418.231108,48.0947266 420.65625,48.0947266 Z M451.492188,51.4882812 C447.53709,51.4882812 444.41619,50.2838662 442.129395,47.875 C439.842599,45.4661338 438.699219,42.1214407 438.699219,37.8408203 C438.699219,33.5276477 439.76122,30.1015752 441.885254,27.5625 C444.009288,25.0234248 446.861636,23.7539062 450.442383,23.7539062 C453.795264,23.7539062 456.448232,24.856597 458.401367,27.0620117 C460.354502,29.2674264 461.331055,32.1767397 461.331055,35.7900391 L461.331055,38.3535156 L442.898438,38.3535156 C442.979818,41.4948074 443.773267,43.8792236 445.278809,45.5068359 C446.78435,47.1344482 448.904283,47.9482422 451.638672,47.9482422 C454.519546,47.9482422 457.367824,47.3460347 460.183594,46.1416016 L460.183594,49.7548828 C458.751295,50.3733755 457.396328,50.8168932 456.118652,51.0854492 C454.840977,51.3540052 453.298837,51.4882812 451.492188,51.4882812 Z M450.393555,27.1474609 C448.245106,27.1474609 446.53207,27.8473237 445.254395,29.2470703 C443.976719,30.6468169 443.223959,32.5836465 442.996094,35.0576172 L456.985352,35.0576172 C456.985352,32.5022659 456.415696,30.5450914 455.276367,29.1860352 C454.137039,27.8269789 452.509451,27.1474609 450.393555,27.1474609 Z M501.34668,51 L501.34668,33.5927734 C501.34668,31.4606013 500.890955,29.8614962 499.979492,28.7954102 C499.068029,27.7293241 497.652028,27.1962891 495.731445,27.1962891 C493.208646,27.1962891 491.345058,27.9205657 490.140625,29.3691406 C488.936192,30.8177156 488.333984,33.047511 488.333984,36.0585938 L488.333984,51 L484.28125,51 L484.28125,33.5927734 C484.28125,31.4606013 483.825525,29.8614962 482.914062,28.7954102 C482.0026,27.7293241 480.57846,27.1962891 478.641602,27.1962891 C476.102526,27.1962891 474.243007,27.9571864 473.062988,29.4790039 C471.882969,31.0008214 471.292969,33.4950999 471.292969,36.9619141 L471.292969,51 L467.240234,51 L467.240234,24.2421875 L470.536133,24.2421875 L471.195312,27.9042969 L471.390625,27.9042969 C472.155603,26.602207 473.23388,25.5849646 474.625488,24.8525391 C476.017097,24.1201135 477.575512,23.7539062 479.300781,23.7539062 C483.483745,23.7539062 486.218093,25.267563 487.503906,28.2949219 L487.699219,28.2949219 C488.496749,26.8951753 489.652336,25.7884155 491.166016,24.9746094 C492.679695,24.1608032 494.404938,23.7539062 496.341797,23.7539062 C499.369156,23.7539062 501.635572,24.5310795 503.141113,26.0854492 C504.646655,27.639819 505.399414,30.1259595 505.399414,33.5439453 L505.399414,51 L501.34668,51 Z M508.500977,24.2421875 L512.84668,24.2421875 L518.706055,39.5009766 C519.991868,42.9840669 520.789386,45.4986902 521.098633,47.0449219 L521.293945,47.0449219 C521.505535,46.2148396 521.949053,44.7947692 522.624512,42.784668 C523.299971,40.7745668 525.509421,34.5938018 529.25293,24.2421875 L533.598633,24.2421875 L522.099609,54.7109375 C520.960281,57.7220203 519.629728,59.8582294 518.10791,61.1196289 C516.586093,62.3810284 514.718436,63.0117188 512.504883,63.0117188 C511.267897,63.0117188 510.047207,62.8733738 508.842773,62.5966797 L508.842773,59.3496094 C509.73796,59.5449229 510.738927,59.6425781 511.845703,59.6425781 C514.62892,59.6425781 516.614577,58.0800938 517.802734,54.9550781 L519.291992,51.1464844 L508.500977,24.2421875 Z" id="Academy" fill="#1F2555"></path>
                </g>
            </g>
        </g>
    </g>
</svg>
